src/assets/img/svg/burger-menu-icons/about.svg

<svg width="16" height="16" fill="none" xmlns="http://www.w3.org/2000/svg"><path d="M8 8c2.21 0 4-1.79 4-4s-1.79-4-4-4-4 1.79-4 4 1.79 4 4 4zm0 2c-2.67 0-8 1.34-8 4v1c0 .55.45 1 1 1h14c.55 0 1-.45 1-1v-1c0-2.66-5.33-4-8-4z" fill="#D0CFCF"/></svg>

<svg width="16" height="16" viewBox="0 0 16 16" fill="none"
     xmlns="http://www.w3.org/2000/svg">
    <path
            d="M8 8C10.21 8 12 6.21 12 4C12 1.79 10.21 0 8 0C5.79 0 4 1.79 4 4C4 6.21 5.79 8 8 8ZM8 10C5.33 10 0 11.34 0 14V15C0 15.55 0.45 16 1 16H15C15.55 16 16 15.55 16 15V14C16 11.34 10.67 10 8 10Z"
            fill="#D0CFCF"/>
</svg>
